src/shared/assets/svgs/large_plus.svg

<svg width="54" height="54" viewBox="0 0 54 54" fill="none" xmlns="http://www.w3.org/2000/svg">
<rect width="54" height="54" rx="27" />
<path d="M33 27.998H28V32.998C28 33.2632 27.8946 33.5176 27.7071 33.7051C27.5196 33.8926 27.2652 33.998 27 33.998C26.7348 33.998 26.4804 33.8926 26.2929 33.7051C26.1054 33.5176 26 33.2632 26 32.998V27.998H21C20.7348 27.998 20.4804 27.8926 20.2929 27.7051C20.1054 27.5176 20 27.2632 20 26.998C20 26.7328 20.1054 26.4784 20.2929 26.2909C20.4804 26.1034 20.7348 25.998 21 25.998H26V20.998C26 20.7328 26.1054 20.4784 26.2929 20.2909C26.4804 20.1034 26.7348 19.998 27 19.998C27.2652 19.998 27.5196 20.1034 27.7071 20.2909C27.8946 20.4784 28 20.7328 28 20.998V25.998H33C33.2652 25.998 33.5196 26.1034 33.7071 26.2909C33.8946 26.4784 34 26.7328 34 26.998C34 27.2632 33.8946 27.5176 33.7071 27.7051C33.5196 27.8926 33.2652 27.998 33 27.998Z" fill="white"/>
</svg>

<svg xmlns="http://www.w3.org/2000/svg" width="54" height="54" fill="none"><rect width="54" height="54" rx="27"/><path fill="#fff" d="M33 27.998h-5v5a1 1 0 0 1-2 0v-5h-5a1 1 0 0 1 0-2h5v-5a1 1 0 0 1 2 0v5h5a1 1 0 0 1 0 2"/></svg>
